X:1
T:Christmas Music
T:G. Froelich
T:Christmas Music
T:Public Domain
T:Public Domain
T:Public Domain
C:G. Froelich
Z:Public Domain
%%score ( 1 2 ) ( 3 4 )
L:1/8
M:4/4
K:F
V:1 treble 
V:2 treble 
V:3 bass 
V:4 bass 
V:1
 F2 [FA]2 [Fc]2 [Ff]2 | (3[Fd][F^c][Fd] (3(fe)[Fd] [F^B]2 [FA]2 | [Ec]2 z2 [Ac]2 z2 | %3
w: 1.~Christ- mas mu- sic|ri- ly wakes the * e- choes; Hark!|how it|
w: 2.~Christ- mas mu- sic|ri- ly wakes the * e- choes; Hark!|over the|
w: 3.~Christ- mas mu- sic|ri- ly wakes the * e- choes; Hark!|sound- ing|
 (3(c=B)[Gc] (3(dA)[FB] [Ec]4 | D2 F2 A2 [Dd]2 | (3(BA)[DB] (3(dc)[DB] [DA]2 [DF]2 | %6
w: freights * the air; * While the|holds his wild- est|flings * snow- drifts * ev- ery- where;|
w: ci- * ty’s streets; * Peal- ing|while the snow is|pure * cover- ing * all it meets;|
w: far * and near; * Hap- py|lend their flute- like|praise * Christ- mas * joy and cheer;|
 [^CA]2 z2 [FA]2 z2 | (3(A^G)[EA] (3(=Bc)[EB] [EA]4 | [EA]2 [EG]2 [Ed]2 [Ec]2 | %9
w: bel- fry|in * the tow- * er, In|pel on the hill,|
w: thed- ral’s|deep- * toned thun- * der Joins|ly chim- ing bell,|
w: mu- sic|of * the heart- * strings, Swept|gers skilled by love,|
 [F=B]2 [Fc]2 [Ff]2 [FA]2 | [Fd]2 [Fc]2 [F=B]2 [Fc]2 | [Ee]2 [Fd]2 [Ec]4 | F2 [FA]2 [Fc]2 [Af]2 | %13
w: Har- mo- ny de-|scends like sil- ver|show- er, Or|like sweet- ly flow-|
w: And the pass- er,|lost in joy and|won- der, Lists|what me- tal tongues|
w: Gives to life a|charm so true, en-|dear- ing, Earth|be- comes like Heav’n|
 (3(d^c)[Fd] (3(fe)[Fd] [F^B]2 [FA]2 | [Fc]4 [Fd]4 | (3(FE)[CF] (3(GA)[CG] [CF]4 |] %16
w: rill. * * * * * * *|||
w: tell. * * * * * * *|||
w: bove. * * * * * * *|||
V:2
 F2 x6 | x2 F2 x4 | x8 | G2 G2 x4 | D2 F2 A2 x2 | D2 D2 x4 | x8 | E2 E2 x4 | x8 | x8 | x8 | x8 | %12
w: mer-|hark!||storm- king|re- vels, Flings,|From the||the cha-|||||
w: mer-|hark!||clear- ly|fall- ing, Pure,|The ca-||a sweet-|||||
w: mer-|hark!||child- ren|voic- es, Praise,|Sweet- est||by fin-|||||
 F2 x6 | F2 F2 x4 | x8 | C2 C2 x4 |] %16
w: ing||||
w: can||||
w: a-||||
V:3
 [F,A,]2 [F,C]2 [F,A,]2 [F,C]2 | (3[F,B,][F,A,][F,B,] (3(DC)[F,B,] [F,A,]2 [F,C]2 | %2
 [C,C]2 z2 [F,C]2 z2 | (3(ED)[G,E] (3:2:2[G,F]2 [G,D] [C,C]4 | D,2 F,2 A,2 [D,D]2 | %5
 (3(G,F,)[D,G,] (3(B,A,)[D,G,] [D,F,]2 [D,A,]2 | [A,,A,]2 z2 [D,A,]2 z2 | %7
 (3(C=B,)[E,C] (3(DE)[E,D] [A,,C]4 | [C,C]2 [C,B,]2 [C,B,]2 [C,B,]2 | %9
 [F,^G,]2 [F,A,]2 [F,A,]2 [F,C]2 | [F,B,]2 [F,A,]2 [F,^G,]2 [F,A,]2 | [G,C]2 [G,=B,]2 [C,C]4 | %12
 [F,A,]2 [F,C]2 [F,A,]2 [F,C]2 | (3(B,A,)[F,B,] (3(DC)[F,B,] [F,A,]2 [F,C]2 | [C,B,]4 [=B,,^G,]4 | %15
 (3(A,G,)[C,A,] (3(B,C)[C,B,] [F,A,]4 |] %16
V:4
 x8 | x2 F,2 x4 | x8 | G,2 x6 | D,2 F,2 A,2 x2 | D,2 D,2 x4 | x8 | E,2 E,2 x4 | x8 | x8 | x8 | x8 | %12
 x8 | F,2 F,2 x4 | x8 | C,2 C,2 x4 |] %16

